X: 2631
T: Banbridge Town
R: waltz
M: 3/4
K: Aminor
EG||"Am"A6|"F"A6|"C"c3d ec|"G"d3d cd|"Am"e3dc2|A3GE2|"Em"G6-|G2E2G2|
"F"A6|A4G2|"C"c3d ec|"G"d3d cd|"Am"e3dc2|A4G2|"Am"A6-|A4e2||
"C"g4e2|e3dc2|"G"d6|d3d cd|"Am"e3d c2|"F"A3G E2|"Em"G6-|G2E2G2|
"F"A6|A4G2|"C"c3d ec|"G"d3d cd|"Am"e3dc2|"D"A4G2|"Am"A6-|A4||

